X: 734
T: Yonghu balu jun
%%abc-version 2.0
%%abcx-abcm2ps-target-version 5.9.1 (29 Sep 2008)
%%abc-creator hum2abc beta
%%abcx-conversion-date 2013/10/02 07:52:30
%%abc-edited-by Helmut Schaffrath
%%humdrum-veritas 1532098582
%%humdrum-veritas-data 1950901733
%%continueall 1
%%barnumbers 0
L: 1/8
M: 3/4
K: G
d d e d/ d/ [I:setbarnb 1]| 
c ed4 | 
[M:2/4]d B A B/ B/ | 
[M:3/4]E GG4 | 
[M:2/4]d e e d/ d/ | 
[M:3/4]c BA4 | 
[M:2/4]d G F E | 
A G F E | 
D E/ E/ A E | 
D4 |]  



